material/.icons/material/server-plus.svg

<svg xmlns="http://www.w3.org/2000/svg" viewBox="0 0 24 24"><path d="M4 4h16a1 1 0 011 1v4a1 1 0 01-1 1H4a1 1 0 01-1-1V5a1 1 0 011-1m5 4h1V6H9v2M5 6v2h2V6H5m3 10h3v-3h2v3h3v2h-3v3h-2v-3H8v-2z"/></svg>

<?xml version="1.0" encoding="UTF-8"?><!DOCTYPE svg PUBLIC "-//W3C//DTD SVG 1.1//EN" "http://www.w3.org/Graphics/SVG/1.1/DTD/svg11.dtd"><svg xmlns="http://www.w3.org/2000/svg" xmlns:xlink="http://www.w3.org/1999/xlink" version="1.1" id="mdi-server-plus" width="24" height="24" viewBox="0 0 24 24"><path d="M4,4H20A1,1 0 0,1 21,5V9A1,1 0 0,1 20,10H4A1,1 0 0,1 3,9V5A1,1 0 0,1 4,4M9,8H10V6H9V8M5,6V8H7V6H5M8,16H11V13H13V16H16V18H13V21H11V18H8V16Z" /></svg>
